elements/rpg-character/lib/hair/1.svg

<svg xmlns="http://www.w3.org/2000/svg" fill="none" width="113" height="142" viewBox="0 0 113 142"><path d="M23 57h-5v20h-5v10h15v-5h-5V57Zm70 0h-5v25H78v5h5v5h5v-5h10V77h-5V57Z" fill="#282828"/></svg>

<svg width="113" height="142" viewBox="0 0 113 142" fill="none" xmlns="http://www.w3.org/2000/svg">
<path d="M23 57H18V77H13V87H28V82H23V57Z" fill="#282828"/>
<path d="M93 57H88V82H78V87H83V92H88V87H98V77H93V57Z" fill="#282828"/>
</svg>
